rospo-icon-theme-classic-common/16x16/apps/subsurface-icon.svg

<svg height="16" width="16" xmlns="http://www.w3.org/2000/svg"><path d="m16 1.128775c-1.021967.5281129-2.248088 1.2218276-3.585938 1.23125-3.3812776.023814-7.3998204-1.4377283-10.1773432-1.49965-.8972803-.0200038-1.66180076.2905718-2.2367188.68125v13.658375c0 .4432.3568.8.8.8h14.4c.4432 0 .8-.3568.8-.8z" fill="#2c5a98"/><path d="m .8 0c-.4432 0-.8.3568-.8.8v.881625c.57491804-.3906782 1.3394385-.7012538 2.2367188-.68125 2.7775228.0619217 6.7960656 2.023064 10.1773432 1.99925 1.33785-.0094224 2.563971-.7031371 3.585938-1.23125v-.968375c0-.4432-.3568-.8-.8-.8z" fill="#28bae4"/><path d="m7.3910004 2.5996876-.1203124.00469.2976564.2148436.3140624.2828124-.03672.1570316c-.0204.1746764-.043637.505234-.050781.55968l-.0125.098438-.096875-.06875-.1765628-.06875.069531.1148436.069532.1140624h-.177344-.1773436v-.1125-.1117184l-.1695314.066406-.1703128.066406.058594.095312.057812.095312-.2289064.2203124-.2281248.1632816.084375.094531.084375.094531-.1492188-.0875-.15-.0875.196094-.21953.1953128-.2195332-.1031252-.010156c-.0566112-.005296-.2076088-.021796-.3359372-.03672l-.233594-.027344-.015624.2093748-.014844.2093752-.2765624.2609376-.2757812.260156-.2570312 1.039844c-.1412256.5717788-.279878 1.0669268-.308594 1.197656l-.0523432.2375008c.2571408.1080228.5429588.158412.7872092.1726544.0641992-.0402856.1522876-.2157696.1953124-.389844.0430248-.174074.110632-.2359372.1507812-.2359372h.073438l.010156.375c.0056396.2064756.0953588.6769096.1992184 1.0453124.1038632.3684028.1882812.7941152.1882812.9460936v.2765628l-.1156252.072656-.1156248.07266.1846656.10625.064844.10625-.1632812-.06406-.1625-.06328-.2578128.539844-.2570312.539062-.5578124.363281-.358594.364063.089844.403125.089062.403906-.018748.64375-.017968.644531.082031.135156.08281.13594h.2070312.4070312l.2546886-.133601.1585936-.210156-.2132812-.203125c-.0443984-.111989-.1059748-.529646-.1367188-.927344l-.055469-.722656.3109376-.539844.3117188-.539843.4757812-.469532.4757812-.4703122.071094-.6101564.071094-.6101564-.1375.078906-.136719.078125.1296876-.1429686.1296872-.1429684.26875.1406248c.1474872.077388.434178.26622.6375.4203124l.3695316.2804688v.2906252.2898436l.2820312.6250002c.1548112.343658.3147268.768911.35625.945312.041501.176402.122502.381438.1796872.455469l.1039064.134375.3195314-.09297c.175713-.05117.432201-.153493.569531-.228126.137332-.07463.715747-.27551 1.285938-.446093l1.036719-.310157.04766-.144531.04687-.144529h-.39375c-.216373 0-.552381.03238-.746875.07187l-.353125.07188.06094.1.06094.1-.177343-.06875-.176562-.06875-.457031.185938c-.251395.102144-.553243.185156-.670313.185156h-.2125002l-.1820366-.461719-.1820312-.461719-.072656-.6296872-.0734376-.630469-.4492188-.6117188c-.2471236-.3365388-.8114528-.7573828-1.0096844-.935156l-.3656248-.2968752c.1336756.00104.1473484.015292.2809608-.00392l-.0828124-.097656-.028124-.1445312.1421876.028908.1421876.028908-.030468-.1890624-.030468-.1890628.1726564-.0671872c.0615912-.0239932.1131756-.1177756.1437472-.1663964h-.1421876-.1703124v-.2325344c0-.095296.032616-.1734376.072656-.1734376.040018 0 .4597736.091165.5412236.202344l.147656.122378c.1608048-.1209208.546525-.1834124.731657-.25625l.075-.5304688c.0412788-.2916936-.014716-.5805844.02278-.6421876l.06875-.1117188-.1703124-.172656c-.0933088-.094746-.4337042-.1947672-.5130318-.2218752l-.1445312-.0492184.1468748-.1796876.030468-.1578124.014064-.5565556c-.030484-.1707984-.0731188-.2063412-.1515624-.3023436-.2057036-.1194576-.276322-.1457268-.5-.1242188l-.3523436-.004688-.2796876-.1984376c-.1198532-.0889876-.2798404-.2134968-.3460936-.2109368zm1.2093752 2.0440552h.1070312c.058832 0 .1070312.054595.1070312.1218748v.1226564l.1054688-.066406.10625-.066406.082031.135156.082812.1351564-.1312496-.082031-.039064.00236-.015624.2414064v.4195312l-.1906252.00703v.0008l-.2195312-.00938c-.00712-.047648.024328-.454196.00392-.6289064z" fill="#fff"/></svg>

<svg xmlns="http://www.w3.org/2000/svg" width="16" height="16" version="1">
 <path style="fill:#2c5a98" d="M 16,1.128775 C 14.978033,1.6568879 13.751912,2.3506026 12.414062,2.360025 9.0327844,2.383839 5.0142416,0.9222967 2.2367188,0.860375 1.3394385,0.8403712 0.57491804,1.1509468 0,1.541625 L 0,15.2 C 0,15.6432 0.3568,16 0.8,16 l 14.4,0 c 0.4432,0 0.8,-0.3568 0.8,-0.8 z"/>
 <path d="M 0.8,0 C 0.3568,0 0,0.3568 0,0.8 L 0,1.681625 C 0.57491804,1.2909468 1.3394385,0.9803712 2.2367188,1.000375 5.0142416,1.0622967 9.0327844,3.023439 12.414062,2.999625 13.751912,2.9902026 14.978033,2.2964879 16,1.768375 L 16,0.8 C 16,0.3568 15.6432,0 15.2,0 Z" style="fill:#28bae4"/>
 <path style="fill:#ffffff" d="m 7.3910004,2.5996876 -0.1203124,0.00469 0.2976564,0.2148436 0.3140624,0.2828124 -0.03672,0.1570316 c -0.0204,0.1746764 -0.043637,0.505234 -0.050781,0.55968 l -0.0125,0.098438 -0.096875,-0.06875 -0.1765628,-0.06875 0.069531,0.1148436 0.069532,0.1140624 -0.177344,0 -0.1773436,0 0,-0.1125 0,-0.1117184 -0.1695314,0.066406 -0.1703128,0.066406 0.058594,0.095312 0.057812,0.095312 -0.2289064,0.2203124 -0.2281248,0.1632816 0.084375,0.094531 0.084375,0.094531 -0.1492188,-0.0875 -0.15,-0.0875 0.196094,-0.21953 L 6.873812,4.0663996 6.7706868,4.0562436 C 6.7140756,4.0509476 6.563078,4.0344476 6.4347496,4.0195236 L 6.2011556,3.9921796 6.1855316,4.2015544 6.1706876,4.4109296 5.8941252,4.6718672 5.618344,4.9320232 5.3613128,5.9718672 C 5.2200872,6.543646 5.0814348,7.038794 5.0527188,7.1695232 L 5.0003756,7.407024 C 5.2575164,7.5150468 5.5433344,7.565436 5.7875848,7.5796784 5.851784,7.5393928 5.9398724,7.3639088 5.9828972,7.1898344 6.025922,7.0157604 6.0935292,6.9538972 6.1336784,6.9538972 l 0.073438,0 0.010156,0.375 C 6.222912,7.5353728 6.3126312,8.0058068 6.4164908,8.3742096 6.520354,8.7426124 6.604772,9.1683248 6.604772,9.3203032 l 0,0.2765628 -0.1156252,0.072656 -0.1156248,0.07266 0.1846656,0.10625 0.064844,0.10625 -0.1632812,-0.06406 -0.1625,-0.06328 L 6.0394376,10.367186 5.7824064,10.906248 5.224594,11.269529 4.866,11.633592 4.955844,12.036717 5.044906,12.440623 5.026158,13.084373 5.00819,13.728904 5.090221,13.86406 5.173031,14 5.3800622,14 5.7870934,14 6.041782,13.866399 6.2003756,13.656243 5.9870944,13.453118 C 5.942696,13.341129 5.8811196,12.923472 5.8503756,12.525774 L 5.7949066,11.803118 6.1058442,11.263274 6.417563,10.723431 6.8933442,10.253899 7.3691254,9.7835868 7.4402194,9.1734304 7.5113134,8.563274 7.3738134,8.64218 7.2370944,8.720305 7.366782,8.5773364 7.4964692,8.434368 l 0.26875,0.1406248 c 0.1474872,0.077388 0.434178,0.26622 0.6375,0.4203124 l 0.3695316,0.2804688 0,0.2906252 0,0.2898436 0.2820312,0.6250002 c 0.1548112,0.343658 0.3147268,0.768911 0.35625,0.945312 0.041501,0.176402 0.122502,0.381438 0.1796872,0.455469 l 0.1039064,0.134375 0.3195314,-0.09297 c 0.175713,-0.05117 0.432201,-0.153493 0.569531,-0.228126 0.137332,-0.07463 0.715747,-0.27551 1.285938,-0.446093 l 1.036719,-0.310157 0.04766,-0.144531 0.04687,-0.144529 -0.39375,0 c -0.216373,0 -0.552381,0.03238 -0.746875,0.07187 l -0.353125,0.07188 0.06094,0.1 0.06094,0.1 -0.177343,-0.06875 -0.176562,-0.06875 -0.457031,0.185938 c -0.251395,0.102144 -0.553243,0.185156 -0.670313,0.185156 l -0.2125002,0 L 9.7527192,10.765618 9.570688,10.303899 9.498032,9.6742118 9.4245944,9.0437428 8.9753756,8.432024 C 8.728252,8.0954852 8.1639228,7.6746412 7.9656912,7.496868 L 7.6000664,7.1999928 c 0.1336756,0.00104 0.1473484,0.015292 0.2809608,-0.00392 L 7.7982148,7.0984168 7.7700908,6.9538856 7.9122784,6.9827936 8.054466,7.0117016 8.023998,6.8226392 7.99353,6.6335764 8.1661864,6.5663892 C 8.2277776,6.542396 8.279362,6.4486136 8.3099336,6.3999928 l -0.1421876,0 -0.1703124,0 0,-0.2325344 c 0,-0.095296 0.032616,-0.1734376 0.072656,-0.1734376 0.040018,0 0.4597736,0.091165 0.5412236,0.202344 l 0.147656,0.122378 C 8.919774,6.197822 9.3054942,6.1353304 9.4906262,6.0624928 l 0.075,-0.5304688 C 9.606905,5.2403304 9.5509102,4.9514396 9.5884062,4.8898364 L 9.6571562,4.7781176 9.4868438,4.6054616 C 9.393535,4.5107156 9.0531396,4.4106944 8.973812,4.3835864 L 8.8292808,4.334368 8.9761556,4.1546804 9.0066236,3.996868 9.0206876,3.4403124 C 8.9902036,3.269514 8.9475688,3.2339712 8.8691252,3.1379688 8.6634216,3.0185112 8.5928032,2.992242 8.3691252,3.01375 L 8.0167816,3.009062 7.737094,2.8106244 C 7.6172408,2.7216368 7.4572536,2.5971276 7.3910004,2.5996876 Z m 1.2093752,2.0440552 0.1070312,0 c 0.058832,0 0.1070312,0.054595 0.1070312,0.1218748 l 0,0.1226564 0.1054688,-0.066406 0.10625,-0.066406 0.082031,0.135156 0.082812,0.1351564 -0.1312496,-0.082031 -0.039064,0.00236 -0.015624,0.2414064 0,0.4195312 -0.1906252,0.00703 0,8e-4 -0.2195312,-0.00938 c -0.00712,-0.047648 0.024328,-0.454196 0.00392,-0.6289064 z"/>
</svg>
